src/assets/icons/fa/neuter.svg

<?xml version="1.0" encoding="utf-8"?>
<svg width="1792" height="1792" viewBox="0 0 1792 1792" xmlns="http://www.w3.org/2000/svg"><path d="M1408 576q0 221-147.5 384.5t-364.5 187.5v612q0 14-9 23t-23 9h-64q-14 0-23-9t-9-23v-612q-217-24-364.5-187.5t-147.5-384.5q0-117 45.5-223.5t123-184 184-123 223.5-45.5 223.5 45.5 184 123 123 184 45.5 223.5zm-576 448q185 0 316.5-131.5t131.5-316.5-131.5-316.5-316.5-131.5-316.5 131.5-131.5 316.5 131.5 316.5 316.5 131.5z"/></svg>

<svg width="1792" height="1792" xmlns="http://www.w3.org/2000/svg"><path d="M1408 576q0 221-147.5 384.5T896 1148v612q0 14-9 23t-23 9h-64q-14 0-23-9t-9-23v-612q-217-24-364.5-187.5T256 576q0-117 45.5-223.5t123-184 184-123T832 0t223.5 45.5 184 123 123 184T1408 576zm-576 448q185 0 316.5-131.5T1280 576t-131.5-316.5T832 128 515.5 259.5 384 576t131.5 316.5T832 1024z"/></svg>
